components/ui-node-icon/src/jsonFile/jsonFile.large.svg

<svg width="32" height="32" viewBox="0 0 32 32" fill="none" xmlns="http://www.w3.org/2000/svg">
  <path fill-rule="evenodd" clip-rule="evenodd" d="M5 7C5 4.79086 6.79086 3 9 3H23L23.0079 3.00001H21L27 9.00001L27 25C27 27.2091 25.2091 29 23 29H9C6.79086 29 5 27.2091 5 25V7ZM12 11C10.6193 11 9.5 12.1193 9.5 13.5V14.5858C9.5 14.7184 9.44732 14.8456 9.35355 14.9393L8.14645 16.1464C7.95118 16.3417 7.95118 16.6583 8.14645 16.8536L9.35355 18.0607C9.44732 18.1544 9.5 18.2816 9.5 18.4142V19.5C9.5 20.8807 10.6193 22 12 22H13C13.2761 22 13.5 21.7761 13.5 21.5C13.5 21.2239 13.2761 21 13 21H12C11.1716 21 10.5 20.3284 10.5 19.5V18.4142C10.5 18.0164 10.342 17.6349 10.0607 17.3536L9.20711 16.5L10.0607 15.6464C10.342 15.3651 10.5 14.9836 10.5 14.5858V13.5C10.5 12.6716 11.1716 12 12 12H13C13.2761 12 13.5 11.7761 13.5 11.5C13.5 11.2239 13.2761 11 13 11H12ZM20 11C21.3807 11 22.5 12.1193 22.5 13.5V14.5858C22.5 14.7184 22.5527 14.8456 22.6464 14.9393L23.8536 16.1464C24.0488 16.3417 24.0488 16.6583 23.8536 16.8536L22.6464 18.0607C22.5527 18.1544 22.5 18.2816 22.5 18.4142V19.5C22.5 20.8807 21.3807 22 20 22H19C18.7239 22 18.5 21.7761 18.5 21.5C18.5 21.2239 18.7239 21 19 21H20C20.8284 21 21.5 20.3284 21.5 19.5V18.4142C21.5 18.0164 21.658 17.6349 21.9393 17.3536L22.7929 16.5L21.9393 15.6464C21.658 15.3651 21.5 14.9836 21.5 14.5858V13.5C21.5 12.6716 20.8284 12 20 12H19C18.7239 12 18.5 11.7761 18.5 11.5C18.5 11.2239 18.7239 11 19 11H20ZM17 14C17 14.5523 16.5523 15 16 15C15.4477 15 15 14.5523 15 14C15 13.4477 15.4477 13 16 13C16.5523 13 17 13.4477 17 14ZM15.4904 18.8606C15.1968 18.6863 15 18.3661 15 18C15 17.4477 15.4477 17 16 17C16.5523 17 17 17.4477 17 18V18V19C17 20.5 15 21 15 21C15 21 15.4209 20.1581 15.4904 18.8606Z" fill="var(--tbl--colors--icons--transformation--primary)"/>
  <path d="M21 7V3L27 9H23C21.8954 9 21 8.10457 21 7Z" fill="white" fill-opacity="0.5"/>
</svg>

<svg xmlns="http://www.w3.org/2000/svg" width="32" height="32" fill="none" viewBox="0 0 32 32">
  <path fill="var(--tbl--colors--icons--transformation--primary)" fill-rule="evenodd" d="M5 7a4 4 0 0 1 4-4h14.008H21l6 6v16a4 4 0 0 1-4 4H9a4 4 0 0 1-4-4V7Zm7 4a2.5 2.5 0 0 0-2.5 2.5v1.086a.5.5 0 0 1-.146.353l-1.208 1.207a.5.5 0 0 0 0 .708l1.208 1.207a.5.5 0 0 1 .146.353V19.5A2.5 2.5 0 0 0 12 22h1a.5.5 0 0 0 0-1h-1a1.5 1.5 0 0 1-1.5-1.5v-1.086a1.5 1.5 0 0 0-.44-1.06l-.853-.854.854-.854a1.5 1.5 0 0 0 .439-1.06V13.5A1.5 1.5 0 0 1 12 12h1a.5.5 0 0 0 0-1h-1Zm8 0a2.5 2.5 0 0 1 2.5 2.5v1.086a.5.5 0 0 0 .146.353l1.208 1.207a.5.5 0 0 1 0 .708l-1.208 1.207a.5.5 0 0 0-.146.353V19.5A2.5 2.5 0 0 1 20 22h-1a.5.5 0 0 1 0-1h1a1.5 1.5 0 0 0 1.5-1.5v-1.086c0-.398.158-.78.44-1.06l.853-.854-.854-.854a1.5 1.5 0 0 1-.439-1.06V13.5A1.5 1.5 0 0 0 20 12h-1a.5.5 0 0 1 0-1h1Zm-3 3a1 1 0 1 1-2 0 1 1 0 0 1 2 0Zm-1.51 4.86A1 1 0 1 1 17 18v1c0 1.5-2 2-2 2s.42-.842.49-2.14Z" clip-rule="evenodd"/>
  <path fill="#fff" fill-opacity=".5" d="M21 7V3l6 6h-4a2 2 0 0 1-2-2Z"/>
</svg>
